assets/icons/globe-24.svg

<svg width="24" height="24" viewBox="0 0 24 24" fill="none" xmlns="http://www.w3.org/2000/svg">
<path fill-rule="evenodd" clip-rule="evenodd" d="M9.25001 22.6535C8.03515 22.3408 6.90152 21.8258 5.88717 21.1465C3.17875 19.3328 1.32073 16.348 1.03765 12.9167C1.03453 12.8789 1.03161 12.8411 1.02887 12.8032C1.00973 12.5379 1 12.2701 1 12C1 11.9035 1.00124 11.8074 1.00371 11.7115C1.00467 11.6741 1.00582 11.6367 1.00716 11.5993C1.00754 11.5889 1.00793 11.5784 1.00833 11.5679C1.01006 11.5231 1.01206 11.4784 1.01432 11.4337C1.02027 11.3164 1.02806 11.1996 1.03765 11.0833C1.32073 7.65198 3.17874 4.6672 5.88716 2.8535C6.90151 2.17423 8.03514 1.65923 9.25 1.34655C10.129 1.12032 11.0504 1 12 1C12.9496 1 13.871 1.12032 14.75 1.34655C15.9649 1.65923 17.0985 2.17423 18.1128 2.8535C20.8213 4.6672 22.6793 7.65198 22.9624 11.0833C22.9873 11.3856 23 11.6913 23 12C23 12.3087 22.9873 12.6144 22.9624 12.9167C22.6793 16.348 20.8213 19.3328 18.1128 21.1465C17.0985 21.8258 15.9649 22.3408 14.75 22.6535C13.871 22.8797 12.9496 23 12 23C11.0504 23 10.129 22.8797 9.25001 22.6535ZM6.53765 12.9167C6.78185 15.8767 8.19804 18.5044 10.3211 20.3347C9.97513 20.4936 9.61756 20.6316 9.25 20.747C5.81131 19.667 3.2458 16.6152 2.87859 12.9167H6.53765ZM15.6214 12.9167C15.3612 15.5378 13.9968 17.8341 12 19.334C10.0032 17.8341 8.63884 15.5378 8.37859 12.9167L15.6214 12.9167ZM13.6789 20.3347C15.802 18.5044 17.2182 15.8767 17.4624 12.9167H21.1214C20.7542 16.6152 18.1887 19.667 14.75 20.747C14.3824 20.6316 14.0249 20.4936 13.6789 20.3347ZM12 4.666C10.0032 6.16586 8.63884 8.46219 8.37859 11.0833L15.6214 11.0833C15.3612 8.46219 13.9968 6.16586 12 4.666ZM17.4623 11.0833C17.2182 8.1233 15.802 5.49559 13.6789 3.66528C14.0249 3.5064 14.3824 3.36843 14.75 3.25299C18.1887 4.33302 20.7542 7.38483 21.1214 11.0833H17.4623ZM6.53765 11.0833C6.78185 8.1233 8.19804 5.49558 10.3211 3.66528C9.97513 3.5064 9.61756 3.36843 9.25 3.25299C5.81131 4.33302 3.2458 7.38483 2.87859 11.0833H6.53765Z" fill="#F2F2F2"/>
</svg>

<svg xmlns="http://www.w3.org/2000/svg" width="24" height="24" viewBox="0 0 24 24"><path fill-rule="evenodd" d="M9.25 22.654a10.945 10.945 0 01-3.363-1.508 10.994 10.994 0 01-4.85-10.063 10.994 10.994 0 014.85-8.23A10.945 10.945 0 0112 1a10.944 10.944 0 016.113 1.853 10.994 10.994 0 014.85 10.064 10.994 10.994 0 01-4.85 8.23A10.943 10.943 0 0112 23c-.95 0-1.871-.12-2.75-.346zm-2.712-9.737a10.977 10.977 0 003.783 7.418 9.09 9.09 0 01-1.071.412 9.175 9.175 0 01-6.371-7.83h3.659zm9.083 0A9.157 9.157 0 0112 19.334a9.157 9.157 0 01-3.621-6.417h7.242zm-1.942 7.418a10.977 10.977 0 003.783-7.418h3.66a9.175 9.175 0 01-6.372 7.83 9.09 9.09 0 01-1.071-.412zM12 4.666a9.157 9.157 0 00-3.621 6.417h7.242A9.157 9.157 0 0012 4.666zm5.462 6.417a10.976 10.976 0 00-3.783-7.418 9.1 9.1 0 011.071-.412 9.175 9.175 0 016.371 7.83h-3.659zm-10.924 0a10.977 10.977 0 013.783-7.418 9.1 9.1 0 00-1.071-.412 9.175 9.175 0 00-6.371 7.83h3.659z"/></svg>
